X:1
T:Missa "Au travail suis"
T:Missa "Au travail suis" - 5 Agnus Dei
T:Johannes Ockeghem
T:Ed. Charles Weaver
C:Johannes Ockeghem
%%score [ 1 2 3 4 ]
L:1/8
Q:1/4=60
M:2/2
K:C
V:1 treble nm="Superius" snm="S."
V:2 treble-8 nm="Altus" snm="A."
V:3 bass nm="Tenor" snm="T."
V:4 bass nm="Bassus" snm="B."
V:1
 D4 F3 G | A2 A4 ^G2 | A8 | _B4 A2 c2 | _B2 A3 G G2- | G2 ^F2 G4- | G4 z4 | z8 | z4 E4- | E2 D6 | %10
w: A- * *|* gnus _|_|De- * *||* * i|_||qui|_ _|
w: ||||||||||
 E3 F G2 A2 | B2 c4 A2- | A2 ^G2 A4 | z8 | z8 | A6 A2- | A2 B2 c2 A2 | G4 z2 A2- | A6 G2 | F4 E4 | %20
w: tol- * * *||* * lis|||pec- ca-||ta mun-||di _|
w: ||||||||||
 z4 c4 | B4 A2 c2- | cB G2 A4 | G4 F4 | z2 G2 A4 | G4 z2 G2 | c3 B G2 E2 | F2 D2 G4 | %28
w: mi-|se- re- *||re _|no- bis|_ mi-|se- * * re-||
w: do-|na no- *||bis _|pa- cem,|_ do-|na _ _ no-||
[M:3/2] A8 z4 |[M:4/4] F8 | F8 :| %31
w: re|no-|bis.|
w: bis|pa-|cem.|
V:2
 z8 | z4 e4 | c2 f4 d2 | e2 g2 f2 e2 | d2 f2 e2 c2 | z2 d2 B2 e2- | e2 d4 B2 | c4 A2 c2 | %8
w: |A-||gnus De- * *|* * * i,|qui tol- *|||
w: ||||||||
 B2 d2 c2 B2- | BA A4 ^G2 | A4 e2 f2 | g2 a2 f4 | e4 c3 d | e2 f2 d2 e2- | e2 c2 B4 | A4 z4 | %16
w: ||lis pec- ca-|ta _ _|_ mun- *|||di,|
w: ||||||||
 f2 d2 c2 f2- | f2 e2 f4 | z2 f2 e4 | d4 z2 c2 | d4 f2 e2- | e2 g2 f2 a2 | g2 e4 d2 | e2 c2 d4 | %24
w: mi- se- re- *|* * re|no- bis,|_ mi-|se- re- *|||* * re|
w: do- na no- *|* * bis|pa- cem,|_ do-|na no- *|||* * bis|
 e4 f2 d2- | d2 c2 d4 | e3 d cB c2 | d4 e2 g2 |[M:3/2] f2 e3 d d4 ^c2 |[M:4/4] d8- | d8 :| %31
w: no- * *|||||bis.|_|
w: pa- * *|||||cem.|_|
V:3
 z8 | A,4 B,4 | A,4 D,4 | z4 C4 | D4 B,2 G,2 | A,4 G,3 F, | E,2 F,2 G,4 | A,3 G, F,E, E,2- | %8
w: |A- *|* gnus|De-||* i, _|_ _ qui|tol- * * * *|
w: ||||||||
 E,2 D,2 E,2 G,2- | G,2 F,2 D,4 | C,4 z4 | z8 | z4 E,3 F, | G,2 A,2 B,2 C2- | C2 A,4 G,2 | C8 | %16
w: * * lis pec-|* * ca-|ta||mun- *|||di,|
w: ||||||||
 z4 C4 | _B,4 C4 | D4 G,2 C2 | _B,2 A,4 A,2- | A,2 ^G,2 A,4 | G,4 A,4 | E,4 F,4 | E,4 z2 F,2 | %24
w: mi-|* se-|re- * *|* * re|_ _ no-||bis _|_ no-|
w: do-|* na|no- * *|* * bis|_ _ pa-||cem, _|_ pa-|
 E,4 D,4 | z2 G,2 F,4 | E,3 F, G,4 | A,2 _B,2 G,4 |[M:3/2] D,2 C,2 D,2 A,4 G,2 |[M:4/4] D,8- | %30
w: bis, _|mi- se-|re- * *|* * re|no- * * * *|bis.|
w: cem, _|do- na|no- * *|* * bis|pa- * * * *|cem.|
 D,8 :| %31
w: _|
w: _|
V:4
 z4 D,4 | F,4 E,4 | A,,4 z4 | G,4 A,4 | F,2 D,2 E,4 | D,4 E,2 C,2- | C,2 D,2 E,4 | A,,8 | %8
w: A-||gnus|De- *||i qui _|_ _ tol-|lis|
w: ||||||||
 G,,4 C,3 G,, | C,2 D,2 B,,4 | A,,4 z4 | z8 | z4 A,,4 | G,,2 D,4 C,2 | A,,4 E,4 | z4 F,4- | %16
w: pec- ca- *||ta||mun-||* di|mi-|
w: |||||||do-|
 F,2 G,2 A,2 F,2 | G,4 F,4 | D,4 C,4 | D,4 A,,4 | B,,4 A,,4 | z8 | z8 | z2 E,2 D,4 | C,4 z2 F,2 | %25
w: * * * se-|re- *|re _|no- *|bis, _|||no- bis,|_ mi-|
w: * * * na|no- *|bis _|pa- *|cem, _|||pa- cem,|_ do-|
 E,4 D,4 | A,,2 C,3 D, E,2 | D,2 G,4 B,2 |[M:3/2] A,3 G, F,2 D,2 E,4 |[M:4/4] D,8- | D,8 :| %31
w: se- *|re- * * *|* * re|no- * * * *|bis.|_|
w: na _|no- * * *|* * bis|pa- * * * *|cem.|_|

